img/union-6.svg

<svg fill="none" height="59" viewBox="0 0 135 59" width="135" xmlns="http://www.w3.org/2000/svg"><path clip-rule="evenodd" d="m134.178 28.6819c.591-2.229-1.449-4.264-3.676-3.6671l-14.115 3.782c-.992.2658-2.071.0216-2.733-.7635-2.491-2.9527-3.54-6.869-2.86-10.6714.181-1.0109.994-1.7621 1.986-2.0279l13.951-3.7382c2.228-.5968 2.977-3.37916 1.35-5.01384l-5.309-5.33562c-.758-.761611-1.866-1.059769-2.903-.781685l-18.431 4.938405c-1.038.27808-1.8474 1.08994-2.1229 2.12845l-1.3686 5.15829c-.9184 3.4617-3.618 6.1679-7.0774 7.0949l-83.6641 22.4177c-4.52818 1.2133-7.2154157 5.8677-6.00209 10.3959 1.21332 4.5282 5.86775 7.2154 10.39599 6.0021l83.6641-22.4177c3.4594-.927 7.15.0669 9.677 2.6056l3.764 3.7828c.758.7616 1.865 1.0598 2.903.7817l18.43-4.9384c1.038-.2781 1.848-1.09 2.123-2.1285z" fill="#fff500" fill-rule="evenodd"/></svg>

<svg width="135" height="59" viewBox="0 0 135 59" fill="none" xmlns="http://www.w3.org/2000/svg">
<path fill-rule="evenodd" clip-rule="evenodd" d="M134.178 28.6819C134.769 26.4529 132.729 24.4179 130.502 25.0148L116.387 28.7968C115.395 29.0626 114.316 28.8184 113.654 28.0333C111.163 25.0806 110.114 21.1643 110.794 17.3619C110.975 16.351 111.788 15.5998 112.78 15.334L126.731 11.5958C128.959 10.999 129.708 8.21664 128.081 6.58196L122.772 1.24634C122.014 0.484729 120.906 0.186571 119.869 0.464655L101.438 5.40306C100.4 5.68114 99.5906 6.493 99.3151 7.53151L97.9465 12.6898C97.0281 16.1515 94.3285 18.8577 90.8691 19.7847L7.205 42.2024C2.67682 43.4157 -0.0104157 48.0701 1.20291 52.5983C2.41623 57.1265 7.07066 59.8137 11.5989 58.6004L95.263 36.1827C98.7224 35.2557 102.413 36.2496 104.94 38.7883L108.704 42.5711C109.462 43.3327 110.569 43.6309 111.607 43.3528L130.037 38.4144C131.075 38.1363 131.885 37.3244 132.16 36.2859L134.178 28.6819Z" fill="#FFF500"/>
</svg>
